X: 1
T: Springleik: Rondhovdin
O: etter Hans Brimi
Z: John Chambers <jc@trillian.mit.edu>
M: 3/4
L: 1/16
K: C
|: {E}G3(E C3)(D E2)F2 | F2G2 c2d2 e4 | g4{ag} fdf2 ece2 |1,3 d4 BGB2 AFA2 :|2,4 d4 c8 :|
|: {G}c4 (3c2d2e2 f3a | e2f2 e2f2 d3(c | B3)(A G4) [1,3 A3B | B2c2 A2B2 G4 :|[2,4 c3e | (3d2B2d2 c8 :|
